!!!OTL: ES WAR EIN JUNGES MAEDCHEN VON REIZENDER GESTALT
!!!ARE: Europa, Mitteleuropa, Deutschland
!!!SCT: B0167
!!!YEM: Copyright 1995, estate of Helmut Schaffrath.
**kern
*ICvox
*Ivox
*M6/8
*k[b-e-]
*B-:
{8f
=1
8b-
8cc
8b-
4dd
8ff
=2
8ee-
8dd
8cc
4b-}
{8b-
=3
8ee-
8dd
8cc
8ff
8ee-
8dd
=4
4dd
4.cc}
{8f
=5
8f
8g
8f
8f
8g
8f
=6
4.dd
4.g
=7
4.f
4r}
{8ff
=8
8ff
8ee-
8dd
4dd
8ff
=9
8ee-
8dd
8cc
4cc}
{8cc
=10
4ff
8b-
4ee-
8dd
=11
4dd
4.cc}
{8f
=12
8b-
8a
8b-
8cc
8b-
8cc
=13
8.dd
16cc
16dd
16ee-
4ff}
{8ff
=14
8ff
8ee-
8dd
8cc
8dd
8cc
=15
4.b-
4r}
==
!!!AGN: Ballade, Romanze
!!!ONB: ESAC (Essen Associative Code) Database: BOEHME
!!!AMT: compound duple
!!!AIN: vox
!!!EED: Helmut Schaffrath
!!!EEV: 1.0
*-
